flaticon/grooming/powder-5.svg

<svg xmlns="http://www.w3.org/2000/svg" width="32" height="32" viewBox="0 0 24 24">
    <path d="M5.882812 8.480469C5.082031 7.800781 4.601562 6.839844 4.601562 5.800781 4.601562 3.921875 6.121094 2.398438 8.003906 2.398438 9.882812 2.398438 11.402344 3.921875 11.402344 5.800781 11.402344 6.839844 10.921875 7.839844 10.121094 8.480469 9.921875 8.601562 9.921875 8.878906 10.042969 9.039062 10.121094 9.160156 10.242188 9.199219 10.363281 9.199219 10.441406 9.199219 10.5625 9.160156 10.601562 9.078125 11.644531 8.28125 12.203125 7.078125 12.203125 5.800781 12.203125 3.480469 10.324219 1.601562 8.003906 1.601562 5.683594 1.601562 3.804688 3.480469 3.804688 5.839844 3.804688 7.121094 4.402344 8.320312 5.402344 9.121094 5.5625 9.238281 5.84375 9.199219 5.964844 9.039062 6.082031 8.878906 6.042969 8.601562 5.882812 8.480469zM6.402344 18.398438C6.164062 18.398438 6.003906 18.601562 6.003906 18.800781 6.003906 19.039062 6.164062 19.199219 6.402344 19.199219 6.644531 19.199219 6.804688 19.039062 6.804688 18.800781 6.804688 18.558594 6.644531 18.398438 6.402344 18.398438zM6.402344 16.800781C6.644531 16.800781 6.804688 16.640625 6.804688 16.398438 6.804688 16.160156 6.644531 16 6.402344 16 6.164062 16 6.003906 16.199219 6.003906 16.398438 6.003906 16.640625 6.164062 16.800781 6.402344 16.800781zM8.003906 18.398438C7.761719 18.398438 7.601562 18.601562 7.601562 18.800781 7.601562 19.039062 7.761719 19.199219 8.003906 19.199219 8.242188 19.199219 8.402344 19.039062 8.402344 18.800781 8.402344 18.558594 8.242188 18.398438 8.003906 18.398438zM7.203125 19.601562C6.964844 19.601562 6.804688 19.800781 6.804688 20 6.804688 20.238281 6.964844 20.398438 7.203125 20.398438 7.441406 20.398438 7.601562 20.238281 7.601562 20 7.601562 19.761719 7.441406 19.601562 7.203125 19.601562zM8.804688 19.601562C8.5625 19.601562 8.402344 19.800781 8.402344 20 8.402344 20.238281 8.5625 20.398438 8.804688 20.398438 9.042969 20.398438 9.203125 20.238281 9.203125 20 9.203125 19.761719 9.042969 19.601562 8.804688 19.601562zM8.003906 16.800781C8.242188 16.800781 8.402344 16.640625 8.402344 16.398438 8.402344 16.160156 8.242188 16 8.003906 16 7.761719 16 7.601562 16.199219 7.601562 16.398438 7.601562 16.640625 7.761719 16.800781 8.003906 16.800781zM7.203125 18C7.441406 18 7.601562 17.839844 7.601562 17.601562 7.601562 17.359375 7.441406 17.199219 7.203125 17.199219 6.964844 17.199219 6.804688 17.398438 6.804688 17.601562 6.804688 17.839844 6.964844 18 7.203125 18zM5.601562 17.199219C5.363281 17.199219 5.203125 17.398438 5.203125 17.601562 5.203125 17.839844 5.363281 18 5.601562 18 5.84375 18 6.003906 17.839844 6.003906 17.601562 6.003906 17.359375 5.84375 17.199219 5.601562 17.199219zM8.804688 17.199219C8.5625 17.199219 8.402344 17.398438 8.402344 17.601562 8.402344 17.839844 8.5625 18 8.804688 18 9.042969 18 9.203125 17.839844 9.203125 17.601562 9.203125 17.359375 9.042969 17.199219 8.804688 17.199219zM7.203125 15.640625C7.441406 15.640625 7.601562 15.480469 7.601562 15.238281 7.601562 15 7.441406 14.839844 7.203125 14.839844 6.964844 14.839844 6.804688 15 6.804688 15.238281 6.804688 15.480469 6.964844 15.640625 7.203125 15.640625zM8.804688 15.640625C9.042969 15.640625 9.203125 15.480469 9.203125 15.238281 9.203125 15 9.042969 14.839844 8.804688 14.839844 8.5625 14.839844 8.402344 15 8.402344 15.238281 8.402344 15.480469 8.5625 15.640625 8.804688 15.640625zM8.804688 15.640625"/>
    <path d="M 21.402344 18.320312 C 21.242188 18.199219 21.242188 18.078125 21.242188 18 C 21.242188 17.921875 21.242188 17.761719 21.402344 17.679688 C 21.882812 17.441406 22.082031 16.921875 21.964844 16.398438 C 21.804688 15.878906 21.363281 15.558594 20.84375 15.558594 C 20.804688 15.558594 20.804688 15.558594 20.804688 15.558594 C 20.644531 15.558594 20.5625 15.441406 20.523438 15.398438 C 20.484375 15.320312 20.441406 15.199219 20.523438 15.039062 C 20.804688 14.558594 20.722656 14 20.363281 13.640625 C 19.964844 13.28125 19.402344 13.199219 18.964844 13.480469 C 18.804688 13.558594 18.644531 13.519531 18.601562 13.480469 C 18.5625 13.441406 18.441406 13.359375 18.441406 13.160156 C 18.441406 12.640625 18.121094 12.160156 17.601562 12.039062 C 17.125 11.921875 16.5625 12.121094 16.324219 12.601562 C 16.203125 12.761719 16.082031 12.761719 16.003906 12.761719 C 15.921875 12.761719 15.761719 12.761719 15.683594 12.601562 C 15.441406 12.121094 14.921875 11.921875 14.402344 12.039062 C 13.882812 12.160156 13.5625 12.640625 13.5625 13.160156 C 13.5625 13.359375 13.484375 13.441406 13.402344 13.480469 C 13.324219 13.519531 13.203125 13.558594 13.042969 13.480469 C 12.882812 13.386719 12.71875 13.335938 12.550781 13.316406 C 12.417969 13.15625 12.273438 13.003906 12.121094 12.863281 C 12.554688 12.5 12.804688 12.070312 12.804688 11.601562 C 12.804688 11.132812 12.558594 10.703125 12.121094 10.339844 C 13.316406 9.226562 14.003906 7.664062 14.003906 6 C 14.003906 2.679688 11.324219 0 8.003906 0 C 4.683594 0 2.003906 2.679688 2.003906 6 C 2.003906 7.65625 2.683594 9.210938 3.867188 10.351562 C 3.441406 10.714844 3.203125 11.136719 3.203125 11.601562 C 3.203125 12.066406 3.449219 12.496094 3.882812 12.859375 C 2.6875 13.972656 2.003906 15.539062 2.003906 17.199219 C 2.003906 20.519531 4.683594 23.199219 8.003906 23.199219 C 9.25 23.199219 10.441406 22.828125 11.457031 22.113281 C 11.507812 22.203125 11.570312 22.285156 11.644531 22.359375 C 12.003906 22.71875 12.601562 22.800781 13.042969 22.519531 C 13.203125 22.441406 13.363281 22.480469 13.402344 22.519531 C 13.441406 22.558594 13.5625 22.640625 13.5625 22.839844 C 13.5625 23.359375 13.882812 23.839844 14.402344 23.960938 C 14.523438 24 14.601562 24 14.722656 24 C 15.121094 24 15.484375 23.800781 15.683594 23.398438 C 15.804688 23.238281 15.921875 23.238281 16.003906 23.238281 C 16.082031 23.238281 16.203125 23.238281 16.363281 23.398438 C 16.601562 23.878906 17.121094 24.078125 17.644531 23.960938 C 18.164062 23.839844 18.484375 23.359375 18.484375 22.839844 C 18.484375 22.640625 18.601562 22.558594 18.644531 22.519531 C 18.722656 22.480469 18.84375 22.441406 19.003906 22.519531 C 19.484375 22.800781 20.042969 22.71875 20.402344 22.359375 C 20.761719 22 20.84375 21.398438 20.5625 20.960938 C 20.484375 20.800781 20.523438 20.640625 20.5625 20.601562 C 20.5625 20.558594 20.683594 20.441406 20.84375 20.441406 C 21.363281 20.441406 21.84375 20.121094 21.964844 19.601562 C 22.082031 19.121094 21.882812 18.558594 21.402344 18.320312 Z M 10.085938 12.945312 C 10.0625 12.953125 10.035156 12.957031 10.007812 12.964844 C 9.507812 13.089844 8.949219 13.167969 8.378906 13.191406 C 8.328125 13.195312 8.28125 13.195312 8.234375 13.195312 C 8.21875 13.199219 8.203125 13.199219 8.183594 13.199219 C 8.125 13.199219 8.0625 13.199219 8.003906 13.199219 C 7.941406 13.199219 7.882812 13.199219 7.820312 13.199219 C 7.804688 13.199219 7.789062 13.199219 7.773438 13.195312 C 7.722656 13.195312 7.675781 13.195312 7.628906 13.191406 C 7.054688 13.167969 6.5 13.089844 6 12.964844 C 5.972656 12.957031 5.945312 12.953125 5.917969 12.945312 C 5.910156 12.941406 5.898438 12.941406 5.886719 12.9375 C 4.738281 12.628906 4.003906 12.097656 4.003906 11.601562 C 4.003906 11.101562 4.738281 10.570312 5.886719 10.261719 C 5.898438 10.261719 5.910156 10.257812 5.917969 10.253906 C 5.945312 10.246094 5.972656 10.242188 6 10.234375 C 6.5 10.113281 7.054688 10.03125 7.628906 10.007812 C 7.675781 10.007812 7.722656 10.003906 7.773438 10.003906 C 7.789062 10.003906 7.804688 10.003906 7.820312 10.003906 C 7.882812 10 7.941406 10 8.003906 10 C 8.0625 10 8.125 10 8.183594 10.003906 C 8.203125 10.003906 8.21875 10.003906 8.234375 10.003906 C 8.28125 10.003906 8.328125 10.007812 8.378906 10.007812 C 8.949219 10.03125 9.507812 10.113281 10.007812 10.234375 C 10.035156 10.242188 10.0625 10.246094 10.085938 10.253906 C 10.097656 10.257812 10.105469 10.261719 10.117188 10.261719 C 11.265625 10.570312 12.003906 11.101562 12.003906 11.601562 C 12.003906 12.097656 11.265625 12.628906 10.117188 12.9375 C 10.105469 12.941406 10.097656 12.941406 10.085938 12.945312 Z M 4.5625 9.878906 C 3.441406 8.921875 2.804688 7.519531 2.804688 6 C 2.804688 3.160156 5.121094 0.800781 8.003906 0.800781 C 10.882812 0.800781 13.203125 3.121094 13.203125 6 C 13.203125 7.480469 12.5625 8.878906 11.441406 9.878906 C 10.707031 9.511719 9.722656 9.285156 8.648438 9.21875 C 8.621094 9.21875 8.59375 9.214844 8.566406 9.214844 C 8.527344 9.214844 8.488281 9.210938 8.449219 9.210938 C 8.382812 9.207031 8.320312 9.203125 8.257812 9.203125 C 8.25 9.203125 8.242188 9.203125 8.234375 9.203125 C 8.15625 9.199219 8.082031 9.199219 8.003906 9.199219 C 6.902344 9.199219 5.910156 9.371094 5.113281 9.660156 C 4.917969 9.730469 4.734375 9.800781 4.5625 9.878906 Z M 2.804688 17.199219 C 2.804688 15.71875 3.441406 14.320312 4.5625 13.320312 C 5.296875 13.6875 6.285156 13.914062 7.355469 13.980469 C 7.386719 13.980469 7.414062 13.984375 7.441406 13.984375 C 7.480469 13.988281 7.519531 13.988281 7.558594 13.992188 C 7.621094 13.992188 7.683594 13.996094 7.75 13.996094 C 7.757812 13.996094 7.765625 13.996094 7.773438 13.996094 C 7.847656 14 7.925781 14 8.003906 14 C 8.082031 14 8.15625 14 8.234375 13.996094 C 8.242188 13.996094 8.25 13.996094 8.253906 13.996094 C 8.320312 13.996094 8.382812 13.992188 8.449219 13.992188 C 8.488281 13.988281 8.527344 13.988281 8.566406 13.984375 C 8.59375 13.984375 8.621094 13.980469 8.648438 13.980469 C 9.722656 13.914062 10.707031 13.6875 11.441406 13.320312 C 11.515625 13.394531 11.625 13.503906 11.707031 13.582031 C 11.683594 13.601562 11.664062 13.621094 11.644531 13.640625 C 11.632812 13.648438 11.628906 13.65625 11.621094 13.664062 C 11.523438 13.742188 11.464844 13.839844 11.402344 13.960938 C 11.203125 14.320312 11.242188 14.679688 11.441406 15.039062 C 11.523438 15.199219 11.484375 15.359375 11.441406 15.398438 C 11.441406 15.441406 11.324219 15.558594 11.164062 15.558594 C 11.121094 15.558594 11.121094 15.558594 11.121094 15.558594 C 10.5625 15.558594 10.121094 15.878906 10.003906 16.398438 C 9.882812 16.878906 10.082031 17.441406 10.5625 17.679688 C 10.722656 17.800781 10.722656 17.921875 10.722656 18 C 10.722656 18.078125 10.722656 18.238281 10.5625 18.320312 C 10.082031 18.558594 9.882812 19.078125 10.003906 19.601562 C 10.039062 19.761719 10.113281 19.902344 10.207031 20.019531 C 9.601562 20.539062 8.832031 20.839844 8.003906 20.839844 C 7.242188 20.839844 6.539062 20.589844 5.972656 20.167969 C 5.992188 20.117188 6.003906 20.0625 6.003906 20 C 6.003906 19.761719 5.84375 19.601562 5.601562 19.601562 C 5.53125 19.601562 5.46875 19.617188 5.414062 19.644531 C 5.277344 19.484375 5.15625 19.3125 5.050781 19.125 C 5.144531 19.054688 5.203125 18.941406 5.203125 18.800781 C 5.203125 18.558594 5.042969 18.398438 4.804688 18.398438 C 4.78125 18.398438 4.761719 18.402344 4.742188 18.40625 C 4.652344 18.097656 4.601562 17.773438 4.601562 17.441406 C 4.601562 17.21875 4.625 16.996094 4.667969 16.78125 C 4.710938 16.792969 4.753906 16.800781 4.804688 16.800781 C 5.042969 16.800781 5.203125 16.640625 5.203125 16.398438 C 5.203125 16.199219 5.089844 16.054688 4.914062 16.011719 C 5.007812 15.808594 5.117188 15.617188 5.246094 15.4375 C 5.308594 15.5625 5.4375 15.640625 5.601562 15.640625 C 5.84375 15.640625 6.003906 15.480469 6.003906 15.238281 C 6.003906 15.054688 5.910156 14.917969 5.757812 14.867188 C 5.796875 14.828125 5.839844 14.792969 5.882812 14.761719 C 6.082031 14.640625 6.082031 14.359375 5.964844 14.199219 C 5.84375 14 5.5625 14 5.402344 14.121094 C 4.363281 14.921875 3.804688 16.121094 3.804688 17.398438 C 3.804688 19.71875 5.683594 21.601562 8.003906 21.601562 C 9.109375 21.601562 10.179688 21.160156 10.9375 20.425781 C 11 20.433594 11.058594 20.441406 11.121094 20.441406 C 11.324219 20.441406 11.402344 20.558594 11.441406 20.601562 C 11.484375 20.679688 11.523438 20.800781 11.441406 20.960938 C 11.402344 21.039062 11.402344 21.078125 11.363281 21.160156 C 10.441406 21.960938 9.242188 22.398438 8.003906 22.398438 C 5.121094 22.398438 2.804688 20.078125 2.804688 17.199219 Z M 21.003906 19.039062 C 21.203125 19.160156 21.164062 19.359375 21.164062 19.441406 C 21.164062 19.480469 21.082031 19.679688 20.84375 19.679688 C 20.804688 19.679688 20.804688 19.679688 20.804688 19.679688 C 20.363281 19.679688 20.003906 19.878906 19.804688 20.238281 C 19.5625 20.601562 19.601562 21.039062 19.804688 21.398438 C 19.964844 21.640625 19.804688 21.800781 19.761719 21.839844 C 19.722656 21.878906 19.5625 22 19.363281 21.878906 C 19.003906 21.679688 18.5625 21.679688 18.203125 21.878906 C 17.84375 22.078125 17.644531 22.441406 17.644531 22.878906 C 17.644531 23.121094 17.484375 23.199219 17.402344 23.199219 C 17.324219 23.238281 17.121094 23.238281 17.003906 23.039062 C 16.804688 22.640625 16.441406 22.441406 16.003906 22.441406 C 15.5625 22.441406 15.203125 22.679688 14.964844 23 C 14.84375 23.199219 14.644531 23.160156 14.5625 23.160156 C 14.523438 23.160156 14.324219 23.078125 14.324219 22.839844 C 14.324219 22.441406 14.121094 22.039062 13.761719 21.839844 C 13.601562 21.71875 13.402344 21.679688 13.203125 21.679688 C 13.003906 21.679688 12.804688 21.761719 12.683594 21.921875 C 12.441406 22.078125 12.28125 21.921875 12.242188 21.878906 C 12.203125 21.800781 12.082031 21.640625 12.203125 21.441406 C 12.402344 21.078125 12.402344 20.640625 12.203125 20.28125 C 12.136719 20.160156 12.054688 20.058594 11.953125 19.976562 C 11.738281 19.757812 11.429688 19.640625 11.121094 19.640625 C 11.042969 19.640625 10.984375 19.621094 10.9375 19.597656 C 10.902344 19.554688 10.882812 19.511719 10.882812 19.480469 C 10.84375 19.398438 10.84375 19.199219 11.042969 19.078125 C 11.402344 18.878906 11.644531 18.519531 11.644531 18.078125 C 11.644531 17.742188 11.5 17.453125 11.273438 17.246094 C 11.183594 17.148438 11.082031 17.066406 10.964844 17 C 10.953125 16.996094 10.945312 16.988281 10.9375 16.984375 C 10.859375 16.871094 10.882812 16.742188 10.882812 16.679688 C 10.882812 16.640625 10.921875 16.441406 11.203125 16.441406 C 11.601562 16.441406 12.003906 16.238281 12.203125 15.878906 C 12.441406 15.519531 12.402344 15.082031 12.203125 14.71875 C 12.042969 14.480469 12.203125 14.320312 12.242188 14.28125 C 12.28125 14.238281 12.441406 14.121094 12.644531 14.238281 C 13.003906 14.441406 13.441406 14.441406 13.804688 14.238281 C 14.164062 14.039062 14.363281 13.679688 14.363281 13.238281 C 14.363281 13 14.523438 12.960938 14.601562 12.921875 C 14.683594 12.878906 14.882812 12.878906 15.003906 13.078125 C 15.203125 13.480469 15.5625 13.679688 16.003906 13.679688 C 16.441406 13.679688 16.804688 13.441406 17.003906 13.078125 C 17.121094 12.878906 17.324219 12.921875 17.402344 12.921875 C 17.441406 12.921875 17.644531 13 17.644531 13.238281 C 17.644531 13.640625 17.84375 14.039062 18.203125 14.238281 C 18.5625 14.441406 19.003906 14.441406 19.363281 14.238281 C 19.5625 14.121094 19.722656 14.238281 19.761719 14.28125 C 19.804688 14.320312 19.921875 14.480469 19.804688 14.679688 C 19.601562 15.039062 19.601562 15.480469 19.804688 15.839844 C 20.003906 16.199219 20.402344 16.398438 20.804688 16.398438 C 20.84375 16.398438 20.84375 16.398438 20.84375 16.398438 C 21.082031 16.398438 21.164062 16.558594 21.164062 16.640625 C 21.203125 16.71875 21.203125 16.921875 21.003906 17.039062 C 20.601562 17.238281 20.402344 17.601562 20.402344 18.039062 C 20.402344 18.480469 20.644531 18.839844 21.003906 19.039062 Z M 21.003906 19.039062"/>
    <path d="M14.402344 18C14.523438 18 14.601562 17.960938 14.683594 17.878906L16.28125 16.28125C16.441406 16.121094 16.441406 15.878906 16.28125 15.71875 16.121094 15.558594 15.882812 15.558594 15.722656 15.71875L14.121094 17.320312C13.964844 17.480469 13.964844 17.71875 14.121094 17.878906 14.203125 17.960938 14.28125 18 14.402344 18zM14.921875 18.519531L14.121094 19.320312C13.964844 19.480469 13.964844 19.71875 14.121094 19.878906 14.203125 19.960938 14.28125 20 14.402344 20 14.523438 20 14.601562 19.960938 14.683594 19.878906L15.484375 19.078125C15.644531 18.921875 15.644531 18.679688 15.484375 18.519531 15.324219 18.359375 15.082031 18.359375 14.921875 18.519531zM17.722656 15.71875L16.523438 16.921875C16.363281 17.078125 16.363281 17.320312 16.523438 17.480469 16.601562 17.558594 16.683594 17.601562 16.804688 17.601562 16.921875 17.601562 17.003906 17.558594 17.082031 17.480469L18.28125 16.28125C18.441406 16.121094 18.441406 15.878906 18.28125 15.71875 18.121094 15.558594 17.882812 15.558594 17.722656 15.71875zM16.003906 17.601562C15.761719 17.601562 15.601562 17.761719 15.601562 18 15.601562 18.238281 15.761719 18.398438 16.003906 18.398438 16.242188 18.398438 16.402344 18.238281 16.402344 18 16.402344 17.800781 16.242188 17.601562 16.003906 17.601562zM16.003906 17.601562"/>
</svg>

<svg xmlns="http://www.w3.org/2000/svg" width="32" height="32" viewBox="0 0 24 24">
    <path d="M5.883 8.48C5.082 7.8 4.602 6.84 4.602 5.8a3.4 3.4 0 1 1 6.8 0c0 1.04-.48 2.04-1.28 2.68-.2.122-.2.399-.079.56.078.12.2.16.32.16.078 0 .2-.04.239-.122 1.043-.797 1.601-2 1.601-3.277 0-2.32-1.879-4.2-4.2-4.2-2.32 0-4.198 1.88-4.198 4.239A4.21 4.21 0 0 0 5.402 9.12c.16.117.442.078.563-.082a.432.432 0 0 0-.082-.559zm0 0M6.402 18.398a.403.403 0 0 0-.398.403c0 .238.16.398.398.398.243 0 .403-.16.403-.398 0-.242-.16-.403-.403-.403zm0 0M6.402 16.8c.243 0 .403-.16.403-.402 0-.238-.16-.398-.403-.398a.4.4 0 0 0-.398.398c0 .243.16.403.398.403zm0 0M8.004 18.398a.404.404 0 0 0-.402.403c0 .238.16.398.402.398.238 0 .398-.16.398-.398 0-.242-.16-.403-.398-.403zm0 0M7.203 19.602a.4.4 0 0 0-.398.398c0 .238.16.398.398.398.238 0 .399-.16.399-.398 0-.238-.16-.398-.399-.398zm0 0M8.805 19.602a.4.4 0 0 0-.403.398c0 .238.16.398.403.398.238 0 .398-.16.398-.398 0-.238-.16-.398-.398-.398zm0 0M8.004 16.8c.238 0 .398-.16.398-.402 0-.238-.16-.398-.398-.398a.4.4 0 0 0-.402.398c0 .243.16.403.402.403zm0 0M7.203 18c.238 0 .399-.16.399-.398 0-.243-.16-.403-.399-.403a.4.4 0 0 0-.398.403c0 .238.16.398.398.398zm0 0M5.602 17.2a.4.4 0 0 0-.399.402c0 .238.16.398.399.398.242 0 .402-.16.402-.398 0-.243-.16-.403-.402-.403zm0 0M8.805 17.2c-.242 0-.403.198-.403.402 0 .238.16.398.403.398.238 0 .398-.16.398-.398 0-.243-.16-.403-.398-.403zm0 0M7.203 15.64c.238 0 .399-.16.399-.402 0-.238-.16-.398-.399-.398-.238 0-.398.16-.398.398 0 .242.16.403.398.403zm0 0M8.805 15.64c.238 0 .398-.16.398-.402 0-.238-.16-.398-.398-.398-.242 0-.403.16-.403.398 0 .242.16.403.403.403zm0 0"/>
    <path d="M21.402 18.32c-.16-.12-.16-.242-.16-.32 0-.078 0-.238.16-.32.48-.239.68-.758.563-1.282-.16-.52-.602-.84-1.121-.84h-.04c-.16 0-.241-.117-.28-.16a.37.37 0 0 1 0-.359c.28-.48.199-1.039-.16-1.398-.4-.36-.962-.442-1.4-.16-.16.078-.32.039-.362 0-.04-.04-.16-.122-.16-.32 0-.52-.32-1-.84-1.122-.477-.117-1.04.082-1.278.563-.12.16-.242.16-.32.16-.082 0-.242 0-.32-.16-.243-.48-.762-.68-1.282-.563-.52.121-.84.602-.84 1.121 0 .2-.078.281-.16.32a.38.38 0 0 1-.359 0 1.244 1.244 0 0 0-.492-.164 4.713 4.713 0 0 0-.43-.453c.434-.363.684-.793.684-1.261 0-.47-.246-.899-.684-1.262A5.916 5.916 0 0 0 14.004 6c0-3.32-2.68-6-6-6s-6 2.68-6 6c0 1.656.68 3.21 1.863 4.352-.426.363-.664.785-.664 1.25 0 .464.246.894.68 1.257a5.919 5.919 0 0 0-1.88 4.34c0 3.32 2.68 6 6 6a5.956 5.956 0 0 0 3.454-1.086 1.144 1.144 0 0 0 1.586.406c.16-.078.32-.039.36 0 .038.04.16.122.16.32 0 .52.32 1 .84 1.122.12.039.199.039.32.039.398 0 .761-.2.96-.602.122-.16.239-.16.32-.16.079 0 .2 0 .36.16.239.48.758.68 1.282.563.52-.121.84-.602.84-1.121 0-.2.117-.281.16-.32a.38.38 0 0 1 .359 0c.48.28 1.039.199 1.398-.16.36-.36.442-.962.16-1.4-.078-.16-.039-.32 0-.358 0-.043.122-.16.282-.16.52 0 1-.32 1.12-.84.118-.48-.081-1.043-.562-1.282zm-11.316-5.375c-.024.008-.05.012-.078.02a8.19 8.19 0 0 1-1.63.226c-.05.004-.097.004-.144.004-.015.004-.03.004-.05.004H7.82c-.015 0-.03 0-.047-.004-.05 0-.097 0-.144-.004A8.15 8.15 0 0 1 6 12.965c-.027-.008-.055-.012-.082-.02-.008-.004-.02-.004-.031-.008-1.149-.308-1.883-.84-1.883-1.335 0-.5.734-1.032 1.883-1.34a.074.074 0 0 0 .031-.008c.027-.008.055-.012.082-.02a8.443 8.443 0 0 1 1.629-.226c.047 0 .094-.004.144-.004h.047C7.883 10 7.941 10 8.004 10c.059 0 .121 0 .18.004h.05c.047 0 .094.004.145.004.57.023 1.129.105 1.629.226.027.008.055.012.078.02.012.004.02.008.031.008 1.149.308 1.887.84 1.887 1.34 0 .496-.738 1.027-1.887 1.335-.012.004-.02.004-.031.008zM4.562 9.88C3.442 8.922 2.806 7.519 2.806 6 2.805 3.16 5.12.8 8.004.8a5.19 5.19 0 0 1 5.2 5.2c0 1.48-.642 2.879-1.763 3.879-.734-.367-1.718-.594-2.793-.66-.027 0-.054-.004-.082-.004-.039 0-.078-.004-.117-.004-.066-.004-.129-.008-.191-.008h-.024c-.078-.004-.152-.004-.23-.004-1.102 0-2.094.172-2.89.461-.196.07-.38.14-.551.219zm-1.757 7.32c0-1.48.636-2.879 1.757-3.879.735.367 1.723.594 2.793.66.032 0 .06.004.086.004.04.004.079.004.118.008.062 0 .125.004.191.004h.023c.075.004.153.004.23.004.079 0 .153 0 .231-.004h.02c.066 0 .129-.004.195-.004.04-.004.078-.004.117-.008.028 0 .055-.004.082-.004 1.075-.066 2.059-.293 2.793-.66.075.075.184.184.266.262a.916.916 0 0 0-.062.059c-.012.007-.016.015-.024.023a.852.852 0 0 0-.219.297c-.199.36-.16.719.04 1.078.081.16.042.32 0 .36 0 .042-.118.16-.278.16h-.043c-.559 0-1 .32-1.117.84-.121.48.078 1.042.559 1.28.16.122.16.243.16.321 0 .078 0 .238-.16.32-.481.239-.68.758-.56 1.282.036.16.11.3.204.418a3.39 3.39 0 0 1-4.234.148.46.46 0 0 0 .03-.168c0-.238-.16-.398-.401-.398a.414.414 0 0 0-.188.043 3.253 3.253 0 0 1-.363-.52.393.393 0 0 0 .152-.324c0-.242-.16-.403-.398-.403-.024 0-.043.004-.063.008a3.379 3.379 0 0 1-.074-1.625c.043.012.086.02.137.02.238 0 .398-.16.398-.403 0-.199-.113-.343-.289-.386.094-.203.203-.395.332-.575a.38.38 0 0 0 .356.204c.242 0 .402-.16.402-.403 0-.183-.094-.32-.246-.37.039-.04.082-.075.125-.106.199-.121.199-.403.082-.563-.121-.199-.402-.199-.563-.078-1.039.8-1.597 2-1.597 3.277a4.201 4.201 0 0 0 4.199 4.204 4.257 4.257 0 0 0 2.934-1.176c.062.008.12.015.183.015.203 0 .281.118.32.16a.36.36 0 0 1 0 .36c-.039.078-.039.117-.078.2a5.125 5.125 0 0 1-3.36 1.237c-2.882 0-5.198-2.32-5.198-5.199zm18.199 1.84c.2.121.16.32.16.402 0 .04-.082.239-.32.239h-.04c-.44 0-.8.199-1 .558-.241.364-.202.801 0 1.16.16.243 0 .403-.042.442a.32.32 0 0 1-.399.039c-.36-.2-.8-.2-1.16 0-.36.2-.558.562-.558 1 0 .242-.16.32-.243.32-.078.04-.28.04-.398-.16-.2-.398-.563-.598-1-.598-.442 0-.8.239-1.04.559-.12.2-.32.16-.402.16-.039 0-.238-.082-.238-.32 0-.399-.203-.8-.562-1-.16-.121-.36-.16-.559-.16-.2 0-.398.082-.52.242-.242.156-.402 0-.44-.043-.04-.078-.161-.238-.04-.438.2-.363.2-.8 0-1.16a1.006 1.006 0 0 0-.25-.304 1.173 1.173 0 0 0-.832-.336.398.398 0 0 1-.184-.043c-.035-.043-.054-.086-.054-.118-.04-.082-.04-.28.16-.402.36-.2.602-.558.602-1 0-.336-.145-.625-.372-.832a1.26 1.26 0 0 0-.308-.246c-.012-.004-.02-.012-.027-.016-.079-.113-.055-.242-.055-.304 0-.04.039-.239.32-.239.399 0 .8-.203 1-.562.238-.36.2-.797 0-1.16-.16-.239 0-.399.04-.438.038-.043.198-.16.402-.043.359.203.796.203 1.16 0 .36-.199.558-.558.558-1 0-.238.16-.277.239-.316.082-.043.28-.043.402.156.2.402.559.602 1 .602.437 0 .8-.239 1-.602.117-.2.32-.156.398-.156.04 0 .243.078.243.316 0 .403.199.801.558 1 .36.203.8.203 1.16 0a.32.32 0 0 1 .442.442c-.203.36-.203.8 0 1.16.199.36.597.558 1 .558h.039c.238 0 .32.16.32.243.04.078.04.28-.16.398-.402.2-.602.563-.602 1 0 .441.243.8.602 1zm0 0"/>
    <path d="M14.402 18c.121 0 .2-.04.282-.121l1.597-1.598a.39.39 0 0 0 0-.562.385.385 0 0 0-.558 0L14.12 17.32a.391.391 0 0 0 0 .559c.082.082.16.121.281.121zm0 0M14.922 18.52l-.8.8a.391.391 0 0 0 0 .559c.081.082.16.121.28.121.121 0 .2-.04.282-.121l.8-.8a.385.385 0 0 0 0-.56.39.39 0 0 0-.562 0zm0 0M17.723 15.719l-1.2 1.203a.385.385 0 0 0 0 .558c.079.079.16.122.282.122.117 0 .199-.043.277-.122l1.2-1.199a.39.39 0 0 0 0-.562.385.385 0 0 0-.56 0zm0 0M16.004 17.602c-.242 0-.402.16-.402.398 0 .238.16.398.402.398.238 0 .398-.16.398-.398a.4.4 0 0 0-.398-.398zm0 0"/>
</svg>
